X:77
T:Kinlin's Reel
M:2/4
L:1/8
K:Bmin
A|fB B/c/d/e/|fF f>f|eA A/B/c/d/|e/f/e/d/ ed/e/|fB B/c/d/e/|fF f2|fb f/g/f/e/|dB B::
A|d>c d/e/f/g/|af d>d|ee e/f/e/d|c/A/c/e/ a2|BB B/c/d/e/|fF f2|fb f/g/f/e/|dB Bz:|
